packages/ffe-icons/icons/open/300/md/pause.svg

<svg xmlns="http://www.w3.org/2000/svg" height="24" viewBox="0 -960 960 960" width="24"><path d="M589.999-220.001q-24.538 0-42.268-17.731-17.73-17.73-17.73-42.268v-400q0-24.538 17.73-42.268 17.73-17.731 42.268-17.731H680q24.538 0 42.268 17.731 17.731 17.73 17.731 42.268v400q0 24.538-17.731 42.268-17.73 17.731-42.268 17.731h-90.001Zm-309.999 0q-24.538 0-42.268-17.731-17.731-17.73-17.731-42.268v-400q0-24.538 17.731-42.268 17.73-17.731 42.268-17.731h90.001q24.538 0 42.268 17.731 17.73 17.73 17.73 42.268v400q0 24.538-17.73 42.268-17.73 17.731-42.268 17.731H280ZM589.999-280H680v-400h-90.001v400ZM280-280h90.001v-400H280v400Zm0-400v400-400Zm309.999 0v400-400Z"/></svg>

<svg xmlns="http://www.w3.org/2000/svg" height="24" viewBox="0 -960 960 960" width="24"><path d="M590-220q-24.54 0-42.27-17.73Q530-255.46 530-280v-400q0-24.54 17.73-42.27Q565.46-740 590-740h90q24.54 0 42.27 17.73Q740-704.54 740-680v400q0 24.54-17.73 42.27Q704.54-220 680-220h-90Zm-310 0q-24.54 0-42.27-17.73Q220-255.46 220-280v-400q0-24.54 17.73-42.27Q255.46-740 280-740h90q24.54 0 42.27 17.73Q430-704.54 430-680v400q0 24.54-17.73 42.27Q394.54-220 370-220h-90Zm310-60h90v-400h-90v400Zm-310 0h90v-400h-90v400Zm0-400v400-400Zm310 0v400-400Z"/></svg>
